!!!ONB: MCCC : IFC0051_03 : Extracted Monophonic Melody
!!!COM: Chopin, Frédéric
!!!OPR: Mazurkas
!!!OMV: 3
!!!SCT: Op.30
!!!ODT: 1835///
**kern
*thru
*staff1
*Ipiano
*clefG2
*k[b-e-a-d-]
*f:
*M3/4
*MM182
=1
[2.C
=2
4C]
4D-
4BB
=3
[2.C
=4
4C]
4D-
4BB
=5
[2.C
=6
2.C_
=7
2.C_
=8
2.C]
=9
8f
16r
16g
8a-
8b-
8cc
8a-
=10
12g
12a-
12g
4f
4ff
=11
8b-
16r
16cc
8dd-
8ee-
8ff
8dd-
=12
12dd-
12ee-
12dd-
4cc
4a-
=13
8f
16r
16g
8a-
8b-
8cc
8a-
=14
12g
12a-
12g
4f
4cc
=15
8c
16r
16d
8e-
8f
8g
8B
=16
4.c
8c
8d-
16r
16c
=17
8f
16r
16g
8a-
8b-
8cc
8a-
=18
12g
12a-
12g
4f
4ff
=19
8b-
16r
16cc
8dd-
8ee-
8ff
8dd-
=20
12dd-
12ee-
12dd-
4cc
4a-
=21
8f
16r
16g
8a-
8b-
8cc
8a-
=22
12g
12a-
12g
4f
4cc
=23
8c
16r
16d
8e-
8f
8g
8B
=24
2c
4cc
=25
8b-
8a-
4g
8g
8a-
=26
8f
8g
4a-
8a-
8cc
=27
8b-
8a-
8g
8f
8g
8a-
=28
8f
16r
16g
8a-
8b-
8cc
8dd-
=29
8.ff
16ee-
4dd-
8cc
8b-
=30
8a-
8b-
4cc
8cc
8dd-
=31
8ff
16r
16ee-
4dd-
8cc
8b-
=32
8a-
8b-
2cc
=33
8b-
8a-
4g
8g
8a-
=34
8f
8g
4a-
8a-
8cc
=35
8b-
8a-
8g
8f
8g
8a-
=36
8f
16r
16g
8a-
8b-
8cc
8dd-
=37
8.ff
16ee-
4dd-
8cc
8b-
=38
8a-
8b-
4cc
8cc
8dd-
=39
8ff
16r
16ee-
4dd-
8cc
8b-
=40
8a-
16r
16b-
4cc
8a-
8cc
=41
8.ee-
16ee-
4ff
4ee-
=42
8dd-
16r
16ff
2aa-
=43
8b-
16r
16cc
4dd-
4a-
=44
8b-
16r
16cc
4dd-
4a-
=45
8ee-
16r
16ee-
4ff
4ee-
=46
8dd-
16r
16ff
2aa-
=47
8cc
16r
16b-
4cc
4a-
=48
8cc
16r
16b-
4cc
4a-
=49
8.ee-
16ee-
4ff
4ee-
=50
8dd-
16r
16ff
2aa-
=51
8b-
16r
16cc
4dd-
4a-
=52
8b-
16r
16cc
4dd-
4a-
=53
8.ee-
16ee-
4ff
4ee-
=54
8dd-
16r
16ff
2aa-
=55
8cc
16r
16b-
4cc
4a-
=56
8cc
16r
16b-
4cc
4a-
=57
4b-
4b-
4b-
=58
4b-
4b-
4b-
=59
4b-
4b-
4b-
=60
4b-
4b-
4b--
=61
4a-
4a-
4a-
=62
4a-
4a-
4a-
=63
4a-
4a-
4a-
=64
4a-
4a-
4a
=65
4b-
4b-
4b-
=66
4b-
4b-
4b-
=67
4b-
4b-
4b-
=68
4b-
4b-
4b--
=69
4a-
4a-
4a-
=70
4a-
4a-
4a-
=71
4a-
4a-
4a-
=72
4a-
4a-
4a-
=73
4a-
4a-
4a-
=74
4a-
4a-
4a-
=75
4a-
4a-
4a-
=76
4g
4g
4g
=77
2.c
=78
2.f
=79
2.c
=80
2.f
=81
[2.c
=82
2.c]
=83
2.c
=84
2.r
=85
8f
16r
16g
8a-
8b-
8cc
8a-
=86
12g
12a-
12g
4f
4ff
=87
8b-
16r
16cc
8dd-
8ee-
8ff
8dd-
=88
12dd-
12ee-
12dd-
4cc
4a-
=89
8f
16r
16g
8a-
8b-
8cc
8a-
=90
12g
12a-
12g
4f
4cc
=91
8c
16r
16d
8e-
8f
8g
8B
=92
4.c
8c
8d-
16r
16c
=93
8f
16r
16g
8a-
8b-
8cc
8a-
=94
12g
12a-
12g
4f
4ff
=95
8b-
16r
16cc
8dd-
8ee-
8ff
8dd-
=96
12dd-
12ee-
12dd-
4cc
4a-
=97
8f
8g
8a-
8b-
8cc
8a-
=98
12g
12a-
12g
4f
4cc
=99
8c
16r
16e
8g
8b-
8.dd-
16cc
=100
12a-
12b-
12a-
8f
8r
4ff
=101
8c
16r
16e
8g
8b-
8.dd-
16cc
=102
12a-
12b-
12a-
8f
8r
4aa-
=103
8c
16r
16e
8g
8b-
8.dd-
16cc
=104
12a-
12b-
12a-
4f
4ff
=105
4fff
4fff
4r
==
*-
